svgs/duotone/microchip-ai.svg

<svg xmlns="http://www.w3.org/2000/svg" viewBox="0 0 512 512"><!--! Font Awesome Pro 6.3.0 by @fontawesome - https://fontawesome.com License - https://fontawesome.com/license (Commercial License) Copyright 2023 Fonticons, Inc. --><defs><style>.fa-secondary{opacity:.4}</style></defs><path class="fa-primary" d="M190.5 272h35.07L208 231.9L190.5 272zM384 64H128C92.65 64 64 92.65 64 128v256c0 35.35 28.65 64 64 64h256c35.35 0 64-28.65 64-64V128C448 92.65 419.3 64 384 64zM270.4 334.7C268.3 335.6 266.2 336 264 336c-6.156 0-12.04-3.578-14.66-9.594L239.5 304H176.5l-9.805 22.41c-3.531 8.125-12.94 11.83-21.06 8.25C137.5 331.1 133.8 321.7 137.3 313.6l56-128c5.062-11.66 24.25-11.66 29.31 0l56 128C282.2 321.7 278.5 331.1 270.4 334.7zM352 320c0 8.844-7.156 16-16 16S320 328.8 320 320V192c0-8.844 7.156-16 16-16S352 183.2 352 192V320z"/><path class="fa-secondary" d="M0 256c0 8.836 7.164 16 16 16H64v-32H16C7.164 240 0 247.2 0 256zM0 352c0 8.836 7.164 16 16 16H64v-32H16C7.164 336 0 343.2 0 352zM0 160c0 8.836 7.164 16 16 16H64v-32H16C7.164 144 0 151.2 0 160zM512 160c0-8.836-7.162-16-16-16H448v32h48C504.8 176 512 168.8 512 160zM176 16C176 7.164 168.8 0 160 0C151.2 0 144 7.164 144 16V64h32V16zM272 16C272 7.164 264.8 0 256 0C247.2 0 240 7.164 240 16V64h32V16zM144 496C144 504.8 151.2 512 160 512c8.838 0 16-7.164 16-16V448h-32V496zM352 0c-8.836 0-16 7.164-16 16V64h32V16C368 7.164 360.8 0 352 0zM240 496c0 8.836 7.164 16 16 16c8.838 0 16-7.164 16-16V448h-32V496zM496 240H448v32h48C504.8 272 512 264.8 512 256S504.8 240 496 240zM336 496c0 8.836 7.164 16 16 16c8.838 0 16-7.164 16-16V448h-32V496zM496 336H448v32h48c8.838 0 16-7.164 16-16S504.8 336 496 336z"/></svg>

<svg xmlns="http://www.w3.org/2000/svg" viewBox="0 0 512 512"><!-- Font Awesome Pro 6.0.0-alpha2 by @fontawesome - https://fontawesome.com License - https://fontawesome.com/license (Commercial License) --><defs><style>.fa-secondary{opacity:.4}</style></defs><path d="M0 256C0 264.836 7.164 272 16 272H64V240H16C7.164 240 0 247.164 0 256ZM0 352C0 360.836 7.164 368 16 368H64V336H16C7.164 336 0 343.164 0 352ZM0 160C0 168.836 7.164 176 16 176H64V144H16C7.164 144 0 151.164 0 160ZM512 160C512 151.164 504.838 144 496 144H448V176H496C504.838 176 512 168.836 512 160ZM176 16C176 7.164 168.838 0 160 0C151.164 0 144 7.164 144 16V64H176V16ZM272 16C272 7.164 264.838 0 256 0C247.164 0 240 7.164 240 16V64H272V16ZM144 496C144 504.836 151.164 512 160 512C168.838 512 176 504.836 176 496V448H144V496ZM352 0C343.164 0 336 7.164 336 16V64H368V16C368 7.164 360.838 0 352 0ZM240 496C240 504.836 247.164 512 256 512C264.838 512 272 504.836 272 496V448H240V496ZM496 240H448V272H496C504.838 272 512 264.836 512 256S504.838 240 496 240ZM336 496C336 504.836 343.164 512 352 512C360.838 512 368 504.836 368 496V448H336V496ZM496 336H448V368H496C504.838 368 512 360.836 512 352S504.838 336 496 336Z" class="fa-secondary"/><path d="M190.463 272H225.537L208 231.922L190.463 272ZM384 64H128C92.654 64 64 92.654 64 128V384C64 419.346 92.654 448 128 448H384C419.348 448 448 419.346 448 384V128C448 92.654 419.348 64 384 64ZM270.406 334.656C268.312 335.578 266.156 336 264 336C257.844 336 251.969 332.422 249.344 326.406L239.539 304H176.461L166.656 326.406C163.125 334.531 153.719 338.234 145.594 334.656C137.5 331.109 133.812 321.688 137.344 313.594L193.344 185.594C198.406 173.938 217.594 173.938 222.656 185.594L278.656 313.594C282.188 321.688 278.5 331.109 270.406 334.656ZM352 320C352 328.844 344.844 336 336 336S320 328.844 320 320V192C320 183.156 327.156 176 336 176S352 183.156 352 192V320Z" class="fa-primary"/></svg>
